X: 3
T: The Cascade Polka
C: Timmy Connor
M: 2/4
L: 1/8
R: polka
K: D Major
|: F2 G>A | EA cA | FE/F/ A>D | FE EG |
FE/F/ G>A | EA c/B/A/G/ | FE/F/ GE |[1 ED D2 :|[2 ED DA/G/ ||
|: F2 AF/A/ | BF AD | FE/F/ A>D | FE EG |
FA A/B/A/F/ | BF A/B/A/G/ | FE/F/ GE | ED D2 :|
